src/images/problem-9.svg

<svg width="470" height="360" fill="none" xmlns="http://www.w3.org/2000/svg"><mask id="a" maskUnits="userSpaceOnUse" x="0" y="0" width="470" height="360"><path fill="#fff" d="M0 0h470v360H0z"/></mask><g mask="url(#a)" stroke-width="2" stroke-linecap="round" stroke-linejoin="round"><path d="M163.891 312.101C185.051 323.521 209.271 330 235 330c25.741 0 49.961-6.479 71.12-17.899M163.891 47.9C185.051 36.48 209.271 30 235 30c25.741 0 49.961 6.48 71.12 17.9M102.9 251.12C91.48 229.95 85 205.73 85 180c0-25.73 6.48-49.95 17.9-71.12M367.1 108.89c11.42 21.16 17.899 45.38 17.899 71.11 0 25.73-6.479 49.95-17.899 71.11" stroke="#231F20"/><path d="M258.131 296.74a117.705 117.705 0 0039.68-15.66M118.26 156.87c2.81-14.31 8.189-27.7 15.66-39.67M172.199 78.91a117.904 117.904 0 0139.67-15.65M118.26 203.13a117.678 117.678 0 0015.66 39.67M172.199 281.09a117.904 117.904 0 0039.67 15.65M258.131 63.26a117.684 117.684 0 0139.68 15.66M336.08 242.8a117.657 117.657 0 0015.66-39.67M336.08 117.2a117.665 117.665 0 0115.66 39.67" stroke="#B2B2B2"/><path d="M238.129 195.292h5.12c.36 0 .693-.192.874-.504l8.245-14.282a1.005 1.005 0 000-1.009l-8.245-14.282a1.01 1.01 0 00-.874-.504h-16.491c-.36 0-.693.192-.873.504l-8.246 14.282a1.01 1.01 0 000 1.009l8.246 14.282c.18.312.513.504.873.504h11.371M238.129 242.081h5.12c.36 0 .693-.192.874-.505l8.245-14.281a1.005 1.005 0 000-1.009l-8.245-14.282a1.009 1.009 0 00-.874-.504h-16.491c-.36 0-.693.191-.873.504l-8.246 14.282a1.01 1.01 0 000 1.009l8.246 14.281c.18.313.513.505.873.505h11.371M238.129 148.503h5.12c.36 0 .693-.192.874-.504l8.245-14.282a1.005 1.005 0 000-1.009l-8.245-14.282a1.01 1.01 0 00-.874-.504h-16.491c-.36 0-.693.192-.873.504l-8.246 14.282a1.01 1.01 0 000 1.009l8.246 14.282c.18.312.513.504.873.504h11.371M185.629 195.292h5.12c.36 0 .693-.192.874-.504l8.245-14.282a1.005 1.005 0 000-1.009l-8.245-14.282a1.01 1.01 0 00-.874-.504h-16.491c-.36 0-.693.192-.873.504l-8.246 14.282a1.01 1.01 0 000 1.009l8.246 14.282c.18.312.513.504.873.504h11.371M290.629 195.292h5.12c.36 0 .693-.192.874-.504l8.245-14.282a1.005 1.005 0 000-1.009l-8.245-14.282a1.01 1.01 0 00-.874-.504h-16.491c-.36 0-.693.192-.873.504l-8.246 14.282a1.01 1.01 0 000 1.009l8.246 14.282c.18.312.513.504.873.504h11.371" stroke="#1A1A1A"/><path d="M187.338 157.965a52.732 52.732 0 0122.6-24.103M260.072 226.148c9.877-5.388 17.848-13.853 22.59-24.104M260.072 133.862c9.877 5.377 17.848 13.842 22.59 24.103M187.338 202.045c4.752 10.251 12.723 18.716 22.6 24.104" stroke="#B2B2B2"/><path d="M381.589 265.35l-83.651-22.414 22.413 83.651M88.418 94.653l83.651 22.415-22.414-83.652M149.655 326.587l22.414-83.651-83.651 22.414M320.351 33.416l-22.413 83.652 83.651-22.415" stroke="#1A1A1A"/><path d="M255.004 311.322l-20-34.641-20 34.641M215.004 48.68l20 34.642 20-34.641M103.684 200.002l34.642-20-34.642-20M366.325 160.001l-34.641 20 34.641 20" stroke="#B2B2B2"/></g></svg>

<svg width="470" height="360" viewBox="0 0 470 360" fill="none" xmlns="http://www.w3.org/2000/svg">
<mask id="mask0" mask-type="alpha" maskUnits="userSpaceOnUse" x="0" y="0" width="470" height="360">
<rect width="470" height="360" fill="white"/>
</mask>
<g mask="url(#mask0)">
<path d="M163.891 312.101C185.051 323.521 209.271 330 235 330C260.741 330 284.961 323.521 306.12 312.101" stroke="#231F20" stroke-width="2" stroke-linecap="round" stroke-linejoin="round"/>
<path d="M163.891 47.9C185.051 36.48 209.271 30 235 30C260.741 30 284.961 36.48 306.12 47.9" stroke="#231F20" stroke-width="2" stroke-linecap="round" stroke-linejoin="round"/>
<path d="M102.9 251.12C91.48 229.95 85 205.73 85 180C85 154.27 91.48 130.05 102.9 108.88" stroke="#231F20" stroke-width="2" stroke-linecap="round" stroke-linejoin="round"/>
<path d="M367.1 108.89C378.52 130.05 384.999 154.27 384.999 180C384.999 205.73 378.52 229.95 367.1 251.11" stroke="#231F20" stroke-width="2" stroke-linecap="round" stroke-linejoin="round"/>
<path d="M258.131 296.74C272.45 293.929 285.841 288.55 297.811 281.08" stroke="#B2B2B2" stroke-width="2" stroke-linecap="round" stroke-linejoin="round"/>
<path d="M118.26 156.87C121.07 142.56 126.449 129.17 133.92 117.2" stroke="#B2B2B2" stroke-width="2" stroke-linecap="round" stroke-linejoin="round"/>
<path d="M172.199 78.9098C184.17 71.4498 197.559 66.0698 211.869 63.2598" stroke="#B2B2B2" stroke-width="2" stroke-linecap="round" stroke-linejoin="round"/>
<path d="M118.26 203.13C121.07 217.441 126.449 230.83 133.92 242.8" stroke="#B2B2B2" stroke-width="2" stroke-linecap="round" stroke-linejoin="round"/>
<path d="M172.199 281.09C184.17 288.55 197.559 293.93 211.869 296.74" stroke="#B2B2B2" stroke-width="2" stroke-linecap="round" stroke-linejoin="round"/>
<path d="M258.131 63.2603C272.45 66.0703 285.841 71.4503 297.811 78.9203" stroke="#B2B2B2" stroke-width="2" stroke-linecap="round" stroke-linejoin="round"/>
<path d="M336.08 242.8C343.551 230.83 348.931 217.441 351.74 203.13" stroke="#B2B2B2" stroke-width="2" stroke-linecap="round" stroke-linejoin="round"/>
<path d="M336.08 117.2C343.551 129.17 348.931 142.56 351.74 156.87" stroke="#B2B2B2" stroke-width="2" stroke-linecap="round" stroke-linejoin="round"/>
<path d="M238.129 195.292H243.249C243.609 195.292 243.942 195.1 244.123 194.788L252.368 180.506C252.549 180.194 252.549 179.809 252.368 179.497L244.123 165.215C243.942 164.903 243.609 164.711 243.249 164.711H226.758C226.398 164.711 226.065 164.903 225.885 165.215L217.639 179.497C217.459 179.809 217.459 180.194 217.639 180.506L225.885 194.788C226.065 195.1 226.398 195.292 226.758 195.292H238.129" stroke="#1A1A1A" stroke-width="2" stroke-linecap="round" stroke-linejoin="round"/>
<path d="M238.129 242.081H243.249C243.609 242.081 243.942 241.889 244.123 241.576L252.368 227.295C252.549 226.982 252.549 226.598 252.368 226.286L244.123 212.004C243.942 211.691 243.609 211.5 243.249 211.5H226.758C226.398 211.5 226.065 211.691 225.885 212.004L217.639 226.286C217.459 226.598 217.459 226.982 217.639 227.295L225.885 241.576C226.065 241.889 226.398 242.081 226.758 242.081H238.129" stroke="#1A1A1A" stroke-width="2" stroke-linecap="round" stroke-linejoin="round"/>
<path d="M238.129 148.503H243.249C243.609 148.503 243.942 148.311 244.123 147.999L252.368 133.717C252.549 133.405 252.549 133.02 252.368 132.708L244.123 118.426C243.942 118.114 243.609 117.922 243.249 117.922H226.758C226.398 117.922 226.065 118.114 225.885 118.426L217.639 132.708C217.459 133.02 217.459 133.405 217.639 133.717L225.885 147.999C226.065 148.311 226.398 148.503 226.758 148.503H238.129" stroke="#1A1A1A" stroke-width="2" stroke-linecap="round" stroke-linejoin="round"/>
<path d="M185.629 195.292H190.749C191.109 195.292 191.442 195.1 191.623 194.788L199.868 180.506C200.049 180.194 200.049 179.809 199.868 179.497L191.623 165.215C191.442 164.903 191.109 164.711 190.749 164.711H174.258C173.898 164.711 173.565 164.903 173.385 165.215L165.139 179.497C164.959 179.809 164.959 180.194 165.139 180.506L173.385 194.788C173.565 195.1 173.898 195.292 174.258 195.292H185.629" stroke="#1A1A1A" stroke-width="2" stroke-linecap="round" stroke-linejoin="round"/>
<path d="M290.629 195.292H295.749C296.109 195.292 296.442 195.1 296.623 194.788L304.868 180.506C305.049 180.194 305.049 179.809 304.868 179.497L296.623 165.215C296.442 164.903 296.109 164.711 295.749 164.711H279.258C278.898 164.711 278.565 164.903 278.385 165.215L270.139 179.497C269.959 179.809 269.959 180.194 270.139 180.506L278.385 194.788C278.565 195.1 278.898 195.292 279.258 195.292H290.629" stroke="#1A1A1A" stroke-width="2" stroke-linecap="round" stroke-linejoin="round"/>
<path d="M187.338 157.965C192.09 147.704 200.061 139.239 209.938 133.862" stroke="#B2B2B2" stroke-width="2" stroke-linecap="round" stroke-linejoin="round"/>
<path d="M260.072 226.148C269.949 220.76 277.92 212.295 282.662 202.044" stroke="#B2B2B2" stroke-width="2" stroke-linecap="round" stroke-linejoin="round"/>
<path d="M260.072 133.862C269.949 139.239 277.92 147.704 282.662 157.965" stroke="#B2B2B2" stroke-width="2" stroke-linecap="round" stroke-linejoin="round"/>
<path d="M187.338 202.045C192.09 212.296 200.061 220.761 209.938 226.149" stroke="#B2B2B2" stroke-width="2" stroke-linecap="round" stroke-linejoin="round"/>
<path d="M381.589 265.35L297.938 242.936L320.351 326.587" stroke="#1A1A1A" stroke-width="2" stroke-linecap="round" stroke-linejoin="round"/>
<path d="M88.418 94.653L172.069 117.068L149.655 33.416" stroke="#1A1A1A" stroke-width="2" stroke-linecap="round" stroke-linejoin="round"/>
<path d="M149.655 326.587L172.069 242.936L88.418 265.35" stroke="#1A1A1A" stroke-width="2" stroke-linecap="round" stroke-linejoin="round"/>
<path d="M320.351 33.416L297.938 117.068L381.589 94.653" stroke="#1A1A1A" stroke-width="2" stroke-linecap="round" stroke-linejoin="round"/>
<path d="M255.004 311.322L235.004 276.681L215.004 311.322" stroke="#B2B2B2" stroke-width="2" stroke-linecap="round" stroke-linejoin="round"/>
<path d="M215.004 48.6807L235.004 83.3217L255.004 48.6807" stroke="#B2B2B2" stroke-width="2" stroke-linecap="round" stroke-linejoin="round"/>
<path d="M103.684 200.002L138.326 180.002L103.684 160.002" stroke="#B2B2B2" stroke-width="2" stroke-linecap="round" stroke-linejoin="round"/>
<path d="M366.325 160.001L331.684 180.001L366.325 200.001" stroke="#B2B2B2" stroke-width="2" stroke-linecap="round" stroke-linejoin="round"/>
</g>
</svg>
